static/logos/launchNotes-wordmark-color.svg

<svg width="50" height="23" viewBox="0 0 50 23" fill="none" xmlns="http://www.w3.org/2000/svg">
<g clip-path="url(#clip0_1_2202)">
<path d="M0 1.84904V1.03772H4.98113V1.84904L3.73585 1.96225C3.73585 2.56602 3.71698 3.20753 3.71698 3.83017C3.71698 4.45281 3.71698 5.07546 3.71698 5.71696V6.50942C3.71698 7.05659 3.71698 7.62263 3.71698 8.24527C3.71698 8.84904 3.73585 9.47168 3.73585 10.0943H6.33962L6.75472 7.98112H7.98113L7.83019 10.9434H0V10.1321L1.13208 10.0189C1.15094 9.41508 1.16981 8.8113 1.16981 8.20753V3.84904C1.16981 3.2264 1.16981 2.60376 1.13208 1.98112L0 1.84904Z" fill="#292D33"/>
<path d="M14.3784 11.1698C13.4916 11.1698 12.9444 10.8113 12.718 10.0755C12.435 10.3774 12.1331 10.6415 11.7935 10.8868C11.4161 11.0943 11.001 11.2075 10.5671 11.1887C10.0388 11.2075 9.52933 11.0377 9.13311 10.6981C8.77462 10.3585 8.58594 9.88678 8.58594 9.26414C8.58594 8.92452 8.66141 8.58491 8.83122 8.28303C9.03877 7.94341 9.34065 7.66037 9.69915 7.47169C10.2652 7.1698 10.869 6.92452 11.4916 6.75471C11.6425 6.6981 11.8124 6.66037 12.0199 6.60376L12.6425 6.45284V5.96225C12.6425 5.28303 12.5671 4.83018 12.3973 4.5849C12.2274 4.33961 11.9067 4.2264 11.4161 4.2264H11.2274C11.152 4.2264 11.0954 4.2264 11.0199 4.24527L10.9444 4.90565C10.9444 5.39622 10.8124 5.75473 10.6048 5.98114C10.4161 6.18869 10.1331 6.32074 9.85009 6.32074C9.30292 6.32074 8.9633 6.07546 8.83122 5.56603C8.86896 4.94339 9.18971 4.43395 9.77462 4.03773C10.3595 3.6415 11.2086 3.45282 12.3029 3.45282C13.2652 3.45282 13.9633 3.67923 14.3784 4.1132C14.7935 4.54716 15.001 5.28303 15.001 6.3019V9.67924C15.001 9.96225 15.1142 10.1132 15.3407 10.1132C15.4161 10.1132 15.4916 10.0943 15.5671 10.0377C15.6614 9.96227 15.7369 9.86791 15.7935 9.77357L16.2086 10.0377C16.0576 10.3962 15.8124 10.6981 15.4916 10.9057C15.1331 11.0943 14.7557 11.1887 14.3784 11.1698ZM10.8124 8.86791C10.7935 9.1698 10.8878 9.47171 11.0765 9.69812C11.2463 9.86793 11.4727 9.98112 11.718 9.96225C11.8312 9.96225 11.9633 9.94341 12.0576 9.8868C12.2652 9.79246 12.4539 9.67923 12.6237 9.54716V7.09433C12.4916 7.13207 12.3595 7.1698 12.2463 7.2264C12.1331 7.28301 12.0199 7.32074 11.9256 7.35848C11.6048 7.49056 11.3218 7.67925 11.1142 7.96227C10.9067 8.20756 10.7935 8.52829 10.8124 8.86791Z" fill="#292D33"/>
<path d="M21.4919 11.132L21.3976 9.8679C21.0957 10.2641 20.7183 10.6037 20.3032 10.849C19.8881 11.0754 19.4353 11.2075 18.9636 11.1887C18.3787 11.2075 17.8126 10.9811 17.4164 10.566C17.0202 10.1509 16.8315 9.4528 16.8504 8.4528L16.907 4.77356L16.0391 4.58488V3.96224L19.1145 3.52828L19.3598 3.69809L19.2466 5.81129V8.49054C19.2466 8.94337 19.3221 9.28299 19.473 9.4528C19.624 9.64148 19.8315 9.73582 20.0768 9.71695C20.3032 9.71695 20.5296 9.64148 20.7372 9.52828C20.9636 9.3962 21.19 9.22639 21.3787 9.03771L21.4353 4.77356L20.6051 4.58488V3.98111L23.6051 3.49054L23.8504 3.66035L23.8126 5.79243V10.0754L24.6051 10.2453V10.9622L21.4919 11.132Z" fill="#292D33"/>
<path d="M25.1477 10.9623V10.2453L25.959 10.0566C25.9779 9.69811 25.9779 9.30188 25.9779 8.88679V6.90566C25.9779 6.49056 25.9779 6.16981 25.9779 5.94339C25.9779 5.71698 25.959 5.45283 25.9402 5.15094L25.0156 5.01887V4.43396L27.9968 3.41509L28.2609 3.5849L28.3552 4.67924C28.676 4.28302 29.0722 3.94339 29.5251 3.69811C29.9213 3.50943 30.3364 3.41509 30.7703 3.41509C31.3741 3.39622 31.9402 3.62264 32.3552 4.0566C32.7515 4.49056 32.959 5.13207 32.959 6V8.88679C32.959 9.30188 32.959 9.69811 32.9779 10.0755L33.7326 10.2264V10.9434H29.7326V10.2264L30.5251 10.0566C30.5439 9.67924 30.5439 9.28302 30.5439 8.86792V6.20755C30.5439 5.71698 30.4873 5.37736 30.3552 5.18868C30.2043 4.98113 29.9779 4.86792 29.7137 4.88679C29.3175 4.88679 28.8835 5.07547 28.4119 5.43396V8.90566C28.4119 9.33962 28.4118 9.73585 28.4307 10.1132L29.1477 10.2641V10.9811L25.1477 10.9623Z" fill="#292D33"/>
<path d="M37.7907 11.1887C37.1303 11.1887 36.4888 11.0566 35.9039 10.7547C35.3379 10.4717 34.8662 10.0189 34.5454 9.47172C34.1869 8.83021 33.9983 8.09436 34.036 7.33964C34.0171 6.60379 34.2058 5.86794 34.5832 5.22643C34.9417 4.6604 35.4511 4.1887 36.0549 3.88681C36.6964 3.56606 37.3945 3.41511 38.1115 3.43398C38.602 3.41511 39.0926 3.52832 39.5266 3.73587C39.9228 3.92455 40.2624 4.1887 40.5077 4.52832C40.753 4.84908 40.8851 5.22643 40.9228 5.62266C40.8285 6.09436 40.3756 6.43398 39.9039 6.41511C39.6209 6.41511 39.3379 6.30191 39.1303 6.09436C38.9039 5.88681 38.7907 5.50945 38.753 4.98115L38.6398 4.22643C38.602 4.20757 38.5454 4.20757 38.5077 4.20757H38.3568C38.0549 4.20757 37.753 4.32077 37.5077 4.49058C37.1869 4.717 36.9605 5.03775 36.8096 5.39625C36.602 5.92455 36.5077 6.47172 36.5454 7.03775C36.5454 7.90568 36.7341 8.56606 37.1303 9.03776C37.5077 9.50945 38.0737 9.75474 38.6775 9.73587C38.9983 9.73587 39.3379 9.6604 39.6209 9.50945C39.9039 9.33964 40.1492 9.13209 40.3568 8.90568L40.8851 9.37738C40.6209 9.94342 40.2058 10.434 39.6586 10.7359C39.0926 11.0566 38.4511 11.2076 37.7907 11.1887Z" fill="#292D33"/>
<path d="M41.3241 10.9623V10.2453L42.1355 10.0566C42.1355 9.69811 42.1543 9.30189 42.1543 8.88679V1.4717L41.2109 1.32075V0.679245L44.343 0L44.5883 0.150943L44.5128 2.26415V4.69811C44.8336 4.30189 45.2298 3.96226 45.6826 3.71698C46.06 3.5283 46.494 3.43396 46.9091 3.43396C47.5128 3.41509 48.0977 3.64151 48.5128 4.07547C48.9091 4.50943 49.1166 5.15094 49.1166 6.01887V8.90566C49.1166 9.32076 49.1166 9.71698 49.1355 10.0943L49.8902 10.2453V10.9623H45.9279V10.2453L46.7204 10.0755C46.7392 9.69811 46.7392 9.30189 46.7392 8.88679V6.20755C46.7392 5.71698 46.6826 5.37736 46.5694 5.18868C46.4185 4.98113 46.1732 4.86792 45.9279 4.90566C45.7015 4.90566 45.4751 4.98113 45.2864 5.09434C45.0411 5.22642 44.7958 5.39623 44.5883 5.60377V8.90566C44.5883 9.33962 44.5883 9.73585 44.6072 10.1132L45.3241 10.2642V10.9811L41.3241 10.9623Z" fill="#292D33"/>
<path d="M6.16981 13.2641V12.4528H10.1321V13.2641L8.84906 13.4528V22.3962H7.58491L2.26415 15.0377V21.3585L3.98113 21.5472V22.3585H0V21.5472L1.28302 21.3585V13.6604L1.07547 13.3773L0.0377325 13.2641V12.4528H3.45283L7.88679 18.5472V13.4528L6.16981 13.2641Z" fill="#292D33"/>
<path d="M14.1675 22.6038C13.4506 22.6226 12.7525 22.4528 12.1298 22.1132C11.5638 21.7925 11.1109 21.3208 10.8091 20.7359C10.4883 20.0943 10.3185 19.3962 10.3374 18.6981C10.3185 18 10.4883 17.283 10.8468 16.6792C11.1675 16.1132 11.6581 15.6415 12.2242 15.3396C12.8279 15.0189 13.4883 14.8491 14.1675 14.8491C14.8468 14.8491 15.5072 15 16.1109 15.3208C16.6958 15.6226 17.1675 16.0943 17.4883 16.6604C17.8468 17.283 18.0166 18 17.9977 18.6981C18.0166 19.4151 17.8468 20.1132 17.526 20.7547C17.2242 21.3208 16.7713 21.7925 16.2053 22.1132C15.5826 22.4528 14.8845 22.6226 14.1675 22.6038ZM14.1675 21.8113C14.5826 21.8113 14.9034 21.566 15.1109 21.0755C15.3185 20.5849 15.4317 19.8113 15.4317 18.7358C15.4317 17.6604 15.3185 16.8679 15.1109 16.3773C14.9034 15.8868 14.5826 15.6415 14.1675 15.6415C13.7336 15.6415 13.4128 15.8868 13.2053 16.3773C12.9977 16.8679 12.8845 17.6604 12.8845 18.7358C12.8845 19.8113 12.9977 20.5849 13.2053 21.0755C13.4128 21.566 13.7336 21.8113 14.1675 21.8113Z" fill="#292D33"/>
<path d="M21.3039 22.6038C20.6247 22.6038 20.0964 22.434 19.719 22.1132C19.3417 21.7925 19.153 21.2453 19.153 20.5095C19.153 20.2453 19.153 20 19.153 19.7736C19.153 19.5472 19.153 19.283 19.153 19V16.1132H18.1719V15.2264L19.2851 15.0755L20.0398 12.9623H21.587L21.5492 15.0944H23.1341V16.1132H21.5492V20.3396C21.5304 20.6227 21.6058 20.8868 21.7756 21.1132C21.9077 21.283 22.1153 21.3585 22.3228 21.3585C22.6247 21.3396 22.9077 21.2264 23.1341 21.0378L23.5115 21.3962C23.3228 21.7736 23.0398 22.0755 22.6813 22.283C22.2473 22.5095 21.7756 22.6227 21.3039 22.6038Z" fill="#292D33"/>
<path d="M27.2796 22.6038C26.6003 22.6226 25.94 22.4528 25.3362 22.1509C24.7701 21.8491 24.3173 21.3962 24.0154 20.8302C23.6758 20.1887 23.506 19.4717 23.5249 18.7547C23.506 18 23.6947 17.2641 24.0909 16.6226C24.4494 16.0566 24.9588 15.6038 25.5437 15.3019C26.1098 15.0189 26.7513 14.8491 27.3928 14.8491C27.9777 14.8302 28.5815 14.9811 29.0909 15.2641C29.5437 15.5283 29.9211 15.9245 30.1475 16.3962C30.3928 16.9057 30.5249 17.4717 30.506 18.0377C30.506 18.3019 30.4871 18.5849 30.4116 18.8302H26.0343C26.0909 19.6226 26.2984 20.2075 26.6947 20.5849C27.0532 20.9434 27.5437 21.1509 28.0532 21.1509C28.4116 21.1698 28.789 21.0755 29.1098 20.9245C29.3928 20.7736 29.6569 20.5849 29.8833 20.3396L30.4116 20.8302C30.1286 21.3962 29.6947 21.8491 29.1475 22.1509C28.6003 22.4528 27.94 22.6038 27.2796 22.6038ZM27.2607 15.6226C26.9777 15.6226 26.7135 15.7924 26.4871 16.1509C26.2607 16.5094 26.1098 17.1321 26.0909 18.0566H27.3739C27.7324 18.0566 27.9777 17.9811 28.1098 17.8302C28.2607 17.6226 28.3173 17.3585 28.2984 17.0943C28.2984 16.5849 28.2041 16.2264 27.9966 15.9811C27.8079 15.7547 27.5437 15.6226 27.2607 15.6226Z" fill="#292D33"/>
<path d="M33.8883 22.6038C32.9637 22.6038 32.0581 22.3774 31.2656 21.9057L31.3034 20.0566H32.5109L32.7751 21.5472C32.9449 21.6227 33.1336 21.6604 33.3222 21.6981C33.5109 21.7359 33.7185 21.7547 33.9071 21.7547C34.2468 21.7736 34.6052 21.6981 34.9071 21.5283C35.1336 21.3774 35.2656 21.1321 35.2468 20.8491C35.2468 20.6227 35.1524 20.4151 34.9826 20.2453C34.8128 20.0755 34.4732 19.9245 33.9637 19.7736L33.1524 19.5283C32.6241 19.3962 32.1524 19.1132 31.7939 18.6981C31.4732 18.3019 31.3034 17.7925 31.3222 17.283C31.3222 16.6038 31.6241 15.9623 32.1524 15.5283C32.6996 15.0566 33.4732 14.8113 34.492 14.8113C34.9071 14.8113 35.3222 14.8679 35.7185 14.9623C36.1147 15.0755 36.492 15.2264 36.8694 15.4151L36.7562 17.0566H35.5486L35.2468 15.7547C34.9826 15.6604 34.6996 15.6227 34.4166 15.6415C34.1335 15.6227 33.8317 15.6981 33.5864 15.8491C33.3788 16 33.2656 16.2264 33.2845 16.4906C33.2845 16.6981 33.3788 16.9057 33.5298 17.0378C33.6996 17.1887 34.0392 17.3585 34.5486 17.5095L35.2845 17.717C36.0015 17.9245 36.5109 18.2264 36.8317 18.6227C37.1524 19.0378 37.3222 19.5472 37.3034 20.0566C37.3411 20.7925 36.9826 21.4906 36.3977 21.9057C35.7939 22.3774 34.9449 22.6038 33.8883 22.6038Z" fill="#292D33"/>
</g>
<defs>
<clipPath id="clip0_1_2202">
<rect width="50" height="22.6415" fill="white"/>
</clipPath>
</defs>
</svg>

<svg xmlns="http://www.w3.org/2000/svg" width="139.13" height="64" fill="none" viewBox="0 0 50 23"><g fill="#292D33" clip-path="url(#a)"><path d="M0 1.849v-.811h4.981v.811l-1.245.113c0 .604-.019 1.246-.019 1.868v4.415c0 .604.019 1.227.019 1.85H6.34l.415-2.114H7.98l-.15 2.962H0v-.81l1.132-.114c.019-.604.038-1.208.038-1.811V3.849c0-.623 0-1.245-.038-1.868L0 1.85ZM14.378 11.17c-.886 0-1.434-.359-1.66-1.095a6.329 6.329 0 0 1-.925.812c-.377.207-.792.32-1.226.302a2.077 2.077 0 0 1-1.434-.49c-.358-.34-.547-.812-.547-1.435 0-.34.075-.68.245-.981.208-.34.51-.623.868-.811a8.676 8.676 0 0 1 1.793-.717c.15-.057.32-.095.528-.151l.623-.151v-.49c0-.68-.076-1.133-.246-1.378-.17-.245-.49-.359-.98-.359h-.19c-.075 0-.132 0-.207.02l-.076.66c0 .49-.132.849-.34 1.075-.188.208-.47.34-.754.34-.547 0-.887-.246-1.019-.755.038-.623.359-1.132.944-1.528.585-.397 1.434-.585 2.528-.585.962 0 1.66.226 2.075.66.415.434.623 1.17.623 2.189v3.377c0 .283.113.434.34.434.075 0 .15-.019.226-.075a.993.993 0 0 0 .226-.264l.416.264c-.151.358-.397.66-.717.868a2.154 2.154 0 0 1-1.114.264Zm-3.566-2.302c-.018.302.076.604.264.83.17.17.397.283.642.264a.69.69 0 0 0 .34-.075c.207-.095.396-.208.566-.34V7.094c-.132.038-.264.076-.378.132-.113.057-.226.095-.32.132-.321.133-.604.321-.812.604-.207.246-.32.566-.302.906ZM21.492 11.132l-.094-1.264c-.302.396-.68.736-1.095.981-.415.226-.868.358-1.34.34a2.049 2.049 0 0 1-1.547-.623c-.396-.415-.585-1.113-.566-2.113l.057-3.68-.868-.188v-.623l3.075-.434.246.17-.113 2.113v2.68c0 .452.075.792.226.962a.678.678 0 0 0 .604.264 1.4 1.4 0 0 0 .66-.189c.227-.132.453-.302.642-.49l.056-4.264-.83-.19v-.603l3-.49.245.17-.037 2.131v4.283l.792.17v.717l-3.113.17ZM25.148 10.962v-.717l.811-.188c.019-.359.019-.755.019-1.17V5.943c0-.226-.019-.49-.038-.792l-.924-.132v-.585l2.98-1.019.265.17.094 1.094c.321-.396.717-.736 1.17-.98a2.862 2.862 0 0 1 1.245-.284 2.078 2.078 0 0 1 1.585.642c.397.434.604 1.075.604 1.943v2.887c0 .415 0 .811.019 1.188l.755.151v.717h-4v-.717l.792-.17c.019-.377.019-.773.019-1.188v-2.66c0-.491-.057-.83-.189-1.02a.71.71 0 0 0-.641-.301c-.396 0-.83.188-1.302.547v3.472c0 .434 0 .83.019 1.207l.717.151v.717l-4-.019ZM37.79 11.189c-.66 0-1.301-.132-1.886-.434a3.297 3.297 0 0 1-1.359-1.283 3.968 3.968 0 0 1-.509-2.132 3.976 3.976 0 0 1 .547-2.114 3.73 3.73 0 0 1 1.472-1.34 4.314 4.314 0 0 1 2.056-.452c.491-.019.982.094 1.416.302.396.189.735.453.98.792.246.321.378.698.416 1.095a1.013 1.013 0 0 1-1.02.792c-.282 0-.565-.113-.773-.32-.226-.208-.34-.586-.377-1.114l-.113-.755c-.038-.018-.095-.018-.132-.018h-.151c-.302 0-.604.113-.85.283-.32.226-.546.547-.697.905a3.76 3.76 0 0 0-.265 1.642c0 .868.19 1.528.585 2 .378.471.944.717 1.547.698.321 0 .66-.076.944-.227.283-.17.528-.377.736-.603l.528.471c-.264.566-.68 1.057-1.226 1.359a3.561 3.561 0 0 1-1.868.453ZM41.324 10.962v-.717l.812-.188c0-.359.018-.755.018-1.17V1.472l-.943-.151V.679L44.343 0l.245.15-.075 2.114v2.434c.32-.396.717-.736 1.17-.981a2.782 2.782 0 0 1 1.226-.283 2.12 2.12 0 0 1 1.604.641c.396.434.604 1.076.604 1.944v2.887c0 .415 0 .811.019 1.188l.754.151v.717h-3.962v-.717l.792-.17c.02-.377.02-.773.02-1.188v-2.68c0-.49-.057-.83-.17-1.018a.673.673 0 0 0-.642-.283c-.226 0-.453.075-.642.188-.245.132-.49.302-.698.51v3.302c0 .434 0 .83.02 1.207l.716.151v.717l-4-.019ZM6.17 13.264v-.811h3.962v.811l-1.283.189v8.943H7.585l-5.32-7.358v6.32l1.716.19v.81H0v-.81l1.283-.19V13.66l-.208-.283-1.037-.113v-.811h3.415l4.434 6.094v-5.094l-1.717-.189ZM14.168 22.604a4.022 4.022 0 0 1-2.038-.49 3.32 3.32 0 0 1-1.32-1.378 4.307 4.307 0 0 1-.473-2.038 3.788 3.788 0 0 1 .51-2.019 3.482 3.482 0 0 1 1.377-1.34 4.126 4.126 0 0 1 1.944-.49c.679 0 1.34.151 1.943.472a3.364 3.364 0 0 1 1.377 1.34c.359.622.529 1.339.51 2.037a4.33 4.33 0 0 1-.472 2.057 3.387 3.387 0 0 1-1.32 1.358c-.623.34-1.322.51-2.038.49Zm0-.793c.415 0 .735-.245.943-.735.207-.491.32-1.265.32-2.34 0-1.076-.112-1.868-.32-2.359-.208-.49-.528-.735-.944-.735-.433 0-.754.245-.962.735-.207.49-.32 1.283-.32 2.359 0 1.075.113 1.849.32 2.34.208.49.529.735.963.735ZM21.304 22.604c-.68 0-1.208-.17-1.585-.49-.377-.322-.566-.869-.566-1.605v-4.396h-.981v-.887l1.113-.15.755-2.114h1.547l-.038 2.132h1.585v1.02H21.55v4.226c-.019.283.057.547.227.773a.68.68 0 0 0 .547.245c.302-.018.585-.132.811-.32l.378.358c-.19.378-.472.68-.83.887a2.74 2.74 0 0 1-1.378.32ZM27.28 22.604a4.09 4.09 0 0 1-1.944-.453 3.183 3.183 0 0 1-1.32-1.32 4.208 4.208 0 0 1-.491-2.076 3.85 3.85 0 0 1 .566-2.132 3.76 3.76 0 0 1 1.453-1.321 4.18 4.18 0 0 1 1.849-.453 3.332 3.332 0 0 1 1.698.415c.453.264.83.66 1.056 1.132.246.51.378 1.076.359 1.642 0 .264-.019.547-.094.792h-4.378c.057.793.264 1.378.66 1.755.36.358.85.566 1.36.566a2.27 2.27 0 0 0 1.056-.227c.283-.15.547-.34.773-.584l.529.49a3.052 3.052 0 0 1-1.264 1.32c-.548.303-1.208.454-1.868.454Zm-.02-6.981c-.282 0-.547.17-.773.528-.226.358-.377.981-.396 1.906h1.283c.358 0 .604-.076.736-.227a1.11 1.11 0 0 0 .188-.736c0-.51-.094-.868-.301-1.113a.958.958 0 0 0-.736-.358ZM33.888 22.604c-.924 0-1.83-.227-2.622-.698l.037-1.85h1.208l.264 1.491c.17.076.359.113.547.151.189.038.396.057.585.057.34.019.698-.057 1-.227a.742.742 0 0 0 .34-.679.845.845 0 0 0-.264-.604c-.17-.17-.51-.32-1.02-.471l-.81-.246c-.529-.132-1-.415-1.36-.83a2.14 2.14 0 0 1-.47-1.415c0-.68.301-1.32.83-1.755.547-.471 1.32-.717 2.339-.717.415 0 .83.057 1.227.151.396.114.773.264 1.15.453l-.113 1.642H35.55l-.302-1.302a2.063 2.063 0 0 0-.83-.114 1.436 1.436 0 0 0-.83.208.71.71 0 0 0-.303.642c0 .207.095.415.246.547.17.15.51.32 1.019.471l.736.208c.717.207 1.226.51 1.547.906.32.415.49.924.471 1.434a2.15 2.15 0 0 1-.905 1.849c-.604.471-1.453.698-2.51.698Z"/></g><defs><clipPath id="a"><path fill="#fff" d="M0 0h50v22.642H0z"/></clipPath></defs></svg>
